packages/core/src/svgs/tokens/mono/CVP.svg

<svg width="24" height="24" viewBox="0 0 24 24" fill="none" xmlns="http://www.w3.org/2000/svg">
<path d="M6.25317 3.87659H9.02375L11.0237 2.62366H8.48846L6.25317 3.87659ZM6.94728 7.05895L8.42963 4.43542H5.50611L4.09434 7.15894L6.94728 7.05895ZM6.8061 7.60601V10.5178H3.81787V7.60601H6.8061ZM12.9649 8.71188L14.965 9.91773H17.5826L15.5826 8.71188H12.9649ZM12.9414 21.4119H15.4414L17.5473 20.1766H14.9002L12.9414 21.4119ZM9.0061 14.1942L11.0061 15.406H8.38258L6.38257 14.1942H9.0061ZM17.1649 13.6001V16.5119H20.1473V13.6001H17.1649ZM15.5296 10.4296L17.012 13.0589L19.865 13.159L18.4532 10.4296H15.5296ZM6.94141 11.059L8.42376 13.6884H5.50023L4.08845 10.9589L6.94141 11.059ZM15.5296 19.6825L17.012 17.0531L19.865 16.953L18.4532 19.6825H15.5296Z" fill="white"/>
<path d="M15.3117 2.58826H12.4177L13.9765 5.2412H16.9L15.3117 2.58826ZM16.2294 3.05885L17.5118 5.38825L19.7471 6.54708L18.5118 4.38238L16.2294 3.05296V3.05885ZM12.5353 8.17649L13.9882 5.67062L16.9588 5.81178L15.5117 8.17649H12.5294H12.5353ZM16.0058 8.37061L17.5529 5.95885L20.0235 7.35296L18.5294 9.81181L16.0058 8.37061ZM2 10.1942L3.37059 8.06472V10.5353L2 12.8823V10.1942ZM3.66469 11.2177L2.0647 13.7941L3.60588 16.3353L5.02941 13.7941L3.66469 11.2177ZM3.87058 16.747L5.45882 14.1765L8.09999 15.6707L6.47645 18.1235L3.87058 16.7529V16.747ZM6.43528 18.5824L4.28234 17.5471L5.47058 19.6883L7.6 20.8942L6.43528 18.5824ZM8.51175 21.3647L7.05292 18.7765H10.0706L11.4588 21.3647H8.51175ZM10.8059 7.44708L9.58819 9.57656L11.9411 8.22355L12.9647 6.21767L10.8 7.44708H10.8059ZM9.41758 4.22355L11.8529 2.70591L13.3823 5.29414L10.8235 6.83532L9.41181 4.22355H9.41758ZM9.04705 4.67649L7.34705 7.24708L8.89999 9.71175L10.3882 7.24119L9.04705 4.67649ZM7.34705 8.17062V10.7412L8.65293 12.8353V10.2648L7.34705 8.17062ZM8.5941 15.8529L7.01175 18.1882H10.1L11.5118 15.8529H8.5941ZM10.9706 17.8118L12.2059 15.753L14.3059 14.5118L12.9706 16.7177L10.9706 17.8118ZM13.0411 17.2118L10.5882 18.647L12.1529 21.2471L14.5471 19.7529L13.047 17.2118H13.0411ZM15.3706 11.1941L16.6646 13.3353V15.9412L15.3706 13.8235V11.1941ZM15.053 14.4L16.5823 16.8177L14.9058 19.3823L13.4176 16.9001L15.053 14.4ZM20.4412 7.7059L18.9588 10.2354L20.3236 12.9L22 10.2354L20.4412 7.7059ZM20.5411 13.5295L21.9529 11.253V13.747L20.5411 15.8354V13.5295Z" fill="white"/>
</svg>

<svg xmlns="http://www.w3.org/2000/svg" width="24" height="24" fill="none" viewBox="0 0 24 24">
    <path fill="#fff" d="M6.253 3.877h2.77l2-1.253H8.489zm.694 3.182L8.43 4.435H5.506L4.094 7.16zm-.14.547v2.912h-2.99V7.606zm6.158 1.106 2 1.206h2.618l-2-1.206zm-.024 12.7h2.5l2.106-1.235H14.9zm-3.935-7.218 2 1.212H8.383l-2-1.212zm8.159-.594v2.912h2.982V13.6zm-1.635-3.17 1.482 2.629 2.853.1-1.412-2.73zm-8.589.629 1.483 2.63H5.5l-1.412-2.73zm8.589 8.624 1.482-2.63 2.853-.1-1.412 2.73zm-.218-17.095h-2.894l1.559 2.653H16.9zm.917.47 1.283 2.33 2.235 1.16-1.235-2.166-2.283-1.329zm-3.694 5.118 1.453-2.505 2.97.14-1.446 2.365h-2.983zm3.47.195 1.548-2.412 2.47 1.394-1.494 2.459zM2 10.194l1.37-2.13v2.471L2 12.882zm1.665 1.024-1.6 2.576 1.54 2.541 1.424-2.54zm.206 5.529 1.588-2.57L8.1 15.67l-1.624 2.453-2.605-1.371zm2.564 1.835-2.153-1.035 1.189 2.141L7.6 20.894zm2.077 2.783-1.46-2.588h3.019l1.388 2.588zm2.294-13.918-1.218 2.13 2.353-1.353 1.024-2.006-2.165 1.23zM9.418 4.224l2.435-1.518 1.53 2.588-2.56 1.541-1.411-2.611zm-.37.452-1.7 2.571L8.9 9.712l1.488-2.47zm-1.7 3.495v2.57l1.305 2.094v-2.57zm1.246 7.682-1.582 2.335H10.1l1.412-2.335zm2.377 1.959 1.235-2.059 2.1-1.241-1.335 2.206zm2.07-.6-2.453 1.435 1.565 2.6 2.394-1.494-1.5-2.541zm2.33-6.018 1.294 2.141v2.606l-1.294-2.118zm-.318 3.206 1.53 2.418-1.677 2.564-1.488-2.482zm5.388-6.694-1.482 2.53 1.365 2.664L22 10.235zm.1 5.824 1.412-2.277v2.494l-1.412 2.088z"/>
</svg>
